24x24/apps/QtProject-qdbusviewer.svg

<svg height="24" width="24" xmlns="http://www.w3.org/2000/svg"><path d="m14 18h6l-1.5 1h-4.5z" fill="#f4f4f7"/><path d="m20 18-3 3v-2.5z" fill="#f4f4f7"/><path d="m3.864 3.5h17.136s1 0 1 1v13l-2.864 3h-17.136s-1 0-1-1v-13z" opacity=".2"/><path d="m3.864 3h17.136s1 0 1 1v13l-2.864 3h-17.136s-1 0-1-1v-13z" fill="#00cc5c"/><path d="m8.518 6.5c-2.78 0-3.518 1.5-3.518 4.5s.725 4.5 3.518 4.5h.793l1.156 2 1.338-.5-1.092-2c1.039-.5 1.287-2 1.287-4 0-3-.703-4.5-3.482-4.5zm5.482 0v2h-1v1h1v3.5c0 2 .468 2.5 1.936 2.5h1.095l-.062-1h-1.239c-.675 0-.73-.5-.73-1.5v-3.5h2v-1h-2v-2zm-5.492 1c2.018 0 2.492 1.167 2.492 3.5s-.459 3.5-2.492 3.5c-2.034 0-2.508-1.167-2.508-3.5s.49-3.5 2.508-3.5z" opacity=".2"/><path d="m8.518 6c-2.78 0-3.518 1.5-3.518 4.5s.725 4.5 3.518 4.5h.793l1.156 2 1.338-.5-1.092-2c1.039-.5 1.287-2 1.287-4 0-3-.703-4.5-3.482-4.5zm5.482 0v2h-1v1h1v3.5c0 2 .468 2.5 1.936 2.5h1.095l-.062-1h-1.239c-.675 0-.73-.5-.73-1.5v-3.5h2v-1h-2v-2zm-5.492 1c2.018 0 2.492 1.167 2.492 3.5s-.459 3.5-2.492 3.5c-2.034 0-2.508-1.167-2.508-3.5s.49-3.5 2.508-3.5z" fill="#f4f4f7"/><path d="m3.863 3-2.863 3v.5l2.863-3h17.137s1 0 1 1v-.5c0-1-1-1-1-1z" fill="#f4f4f7" opacity=".2"/><circle cx="17" cy="17" fill="#e55252" r="6"/><g fill="#f4f4f7"><path d="m14 18h6l-1.5 1h-4.5z" transform="translate(0 -1)"/><path d="m20 18-3 3v-2.5z" transform="translate(0 -1)"/><path d="m14 18h6l-1.5 1h-4.5z" transform="matrix(-1 0 0 -1 34 34)"/><path d="m20 18-3 3v-2.5z" transform="matrix(-1 0 0 -1 34 34)"/></g></svg>

<svg xmlns="http://www.w3.org/2000/svg" width="24" height="24"><path style="fill:#f4f4f7" d="M14 18h6l-1.5 1H14z"/><path style="fill:#f4f4f7" d="m20 18-3 3v-2.5z"/><path style="opacity:.2" d="M3.864 3.5H21s1 0 1 1v13l-2.864 3H2s-1 0-1-1v-13z"/><path style="fill:#00cc5c" d="M3.864 3H21s1 0 1 1v13l-2.864 3H2s-1 0-1-1V6z"/><path style="opacity:.2" d="M8.518 6.5C5.738 6.5 5 8 5 11s.725 4.5 3.518 4.5h.793l1.156 2 1.338-.5-1.092-2C11.752 14.5 12 13 12 11c0-3-.703-4.5-3.482-4.5zM14 6.5v2h-1v1h1V13c0 2 .468 2.5 1.936 2.5h1.095l-.062-1H15.73c-.675 0-.73-.5-.73-1.5V9.5h2v-1h-2v-2zm-5.492 1C10.526 7.5 11 8.667 11 11s-.459 3.5-2.492 3.5C6.474 14.5 6 13.333 6 11s.49-3.5 2.508-3.5z"/><path style="fill:#f4f4f7" d="M8.518 6C5.738 6 5 7.5 5 10.5S5.725 15 8.518 15h.793l1.156 2 1.338-.5-1.092-2c1.039-.5 1.287-2 1.287-4 0-3-.703-4.5-3.482-4.5zM14 6v2h-1v1h1v3.5c0 2 .468 2.5 1.936 2.5h1.095l-.062-1H15.73c-.675 0-.73-.5-.73-1.5V9h2V8h-2V6zM8.508 7C10.526 7 11 8.167 11 10.5S10.541 14 8.508 14C6.474 14 6 12.833 6 10.5S6.49 7 8.508 7z"/><path style="opacity:.2;fill:#f4f4f7" d="M3.863 3 1 6v.5l2.863-3H21s1 0 1 1V4c0-1-1-1-1-1z"/><circle style="fill:#e55252" cx="17" cy="17" r="6"/><path style="fill:#f4f4f7" d="M14 18h6l-1.5 1H14z" transform="translate(0 -1)"/><path style="fill:#f4f4f7" d="m20 18-3 3v-2.5z" transform="translate(0 -1)"/><g><path style="fill:#f4f4f7" d="M14 18h6l-1.5 1H14z" transform="rotate(-180 17 17)"/><path style="fill:#f4f4f7" d="m20 18-3 3v-2.5z" transform="rotate(-180 17 17)"/></g></svg>
